!!!COA:	Josquin des Prez
!!!CDT:	~1450-1521/08/27
!!!COM: Moulu
!!!OPR:	Missa Missus est Gabriel Angelus
!!!ONM:	5
!!!OTL:	Agnus Dei
!!!AGN:	Mass; Agnus Dei
!!!SCT:	NJE 10.2
!!!SCA:	New Josquin Edition 10.2
!!!voices: 4
!!!voices-OPR:	4
**kern	**kern	**kern	**kern
*staff4	*staff3	*staff2	*staff1
*Ivox	*Ivox	*Ivox	*Ivox
*I"Bassus	*I"Tenor	*I"Altus	*I"Superius
*I'B	*I'T	*I'A	*I'S
*>[A,B,C]	*>[A,B,C]	*>[A,B,C]	*>[A,B,C]
*>AgnusI[A]	*>AgnusI[A]	*>AgnusI[A]	*>AgnusI[A]
*>AgnusII[B]	*>AgnusII[B]	*>AgnusII[B]	*>AgnusII[B]
*>AgnusIII[C]	*>AgnusIII[C]	*>AgnusIII[C]	*>AgnusIII[C]
*>A	*>A	*>A	*>A
*clefF4	*clefGv2	*clefGv2	*clefG2
*k[b-]	*k[b-]	*k[b-]	*k[b-]
*M2/1	*M2/1	*M2/1	*M2/1
*met(C|)	*met(C|)	*met(C|)	*met(C|)
!!!OMD: Agnus Dei I
!!section: Agnus Dei I
=1-	=1-	=1-	=1-
0r	0r	0r	0G
=2	=2	=2	=2
0r	0r	0r	1G
.	.	.	1d
=3	=3	=3	=3
0r	0r	0G	1d
.	.	.	2r
.	.	.	[2g/
=4	=4	=4	=4
0r	0r	1G	2g/]
.	.	.	4f/
.	.	.	4e/
.	.	1d	2f/
.	.	.	[2B-/
=5	=5	=5	=5
0r	0G	1d	2B-/]
.	.	.	1b-
.	.	2r	.
.	.	[2g\	4a/
.	.	.	4g/
=6	=6	=6	=6
0r	1G	2g\]	1b-
.	.	4f\	.
.	.	4e\	.
.	1d	1f	2a/
.	.	.	[2b-\
=7	=7	=7	=7
0GG	2d\	1g	4b-\]
.	.	.	4a/
.	1B-	.	1g
.	.	1G	.
.	4A/	.	4f/
.	4G/	.	4e/
=8	=8	=8	=8
1GG	1B-	2r	2.d/
.	.	1d	.
.	.	.	4e/
1D	2A/	.	4f/
.	.	.	4g/
.	[2d\	4c\	[2a/
.	.	4B-\	.
=9	=9	=9	=9
0D	4d\]	2A/	4a/]
.	4c\	.	4g/
.	2B-\	2.d\	1g
.	1A	.	.
.	.	4c\	.
.	.	2A/	2f#i/
=10	=10	=10	=10
0r	1G	2.B-\	2g/
.	.	.	1b-
.	.	4c\	.
.	2r	2d\	.
.	2G/	2e\	4a/
.	.	.	4g/
=11	=11	=11	=11
0r	1F	4f\	1a
.	.	4e\	.
.	.	4d\	.
.	.	4c\	.
.	1G	2.B-\	[1d
.	.	4c\	.
=12	=12	=12	=12
0r	0B-	4d\	0d]
.	.	4e\	.
.	.	1f	.
.	.	4e\	.
.	.	4f\	.
=13	=13	=13	=13
0r	1B-	2g\	2r
.	.	2f\	1f
.	1B-	1d	.
.	.	.	4e/
.	.	.	4f/
=14	=14	=14	=14
0r	0B-	2r	2g/
.	.	1f	2f/
.	.	.	1d
.	.	4e\	.
.	.	4f\	.
=15	=15	=15	=15
0r	1B-	2g\	2r
.	.	2f\	1f
.	2r	[1d	.
.	[2B-\	.	4e/
.	.	.	4f/
=16	=16	=16	=16
0D	2B-\]	1d]	2g/
.	4A/	.	2f/
.	4G/	.	.
.	1F	1f	1d
=17	=17	=17	=17
1C	2.c\	1e	1g
.	4B-\	.	.
1D	2A/	2.d\	[1f
.	[2d\	.	.
.	.	8c\L	.
.	.	8B-\J	.
=18	=18	=18	=18
1F	2d\]	2A/	2f/]
.	4c\	1c	4e/
.	4B-\	.	4d/
[1F	1A	.	[1a
.	.	4B-\	.
.	.	4c\	.
=19	=19	=19	=19
2F\]	2r	2d\	0a_
2F\	1c	2c\	.
1F	.	1A	.
.	4B-\	.	.
.	4c\	.	.
=20	=20	=20	=20
[0F	2d\	2r	0a_
.	2c\	1c	.
.	1A	.	.
.	.	4B-\	.
.	.	4c\	.
=21	=21	=21	=21
0F]	2r	2d\	1a]
.	1c	2c\	.
.	.	1A	1r
.	4B-\	.	.
.	4c\	.	.
=22	=22	=22	=22
0r	2.d\	2.B-\	0f
.	4c\	4c\	.
.	2B-\	4d\	.
.	.	4e\	.
.	2A/	[2f\	.
=23	=23	=23	=23
0r	1G	2f\]	1g
.	.	2e\	.
.	1F	4f\	1a
.	.	4e\	.
.	.	4d\	.
.	.	4c\	.
=24	=24	=24	=24
0r	1G	4B-\	1b-
.	.	4A/	.
.	.	2.d\	.
.	1E	.	1g
.	.	4B-\	.
.	.	2c\	.
=25	=25	=25	=25
0r	4D/	4F/	0a
.	4E/	4G/	.
.	4F/	4A/	.
.	4G/	4B-\	.
.	2A/	2c\	.
.	2F/	[2d\	.
=26	=26	=26	=26
0BB-	1.B-	2d\]	0d
.	.	4B-\	.
.	.	4c\	.
.	.	4d\	.
.	.	4e\	.
.	2A/	[2f\	.
=27	=27	=27	=27
1C	2G/	2f\]	1r
.	2.A/	2e\	.
1D	.	4f\	1d
.	4F/	4e\	.
.	[2B-\	4d\	.
.	.	4c\	.
=28	=28	=28	=28
1E-i	4B-\]	2B-\	1.g
.	4G/	.	.
.	1G	2.e-i\	.
1C	.	.	.
.	.	4d\	.
.	[2A/	4c\	4f/
.	.	4B-\	4e/
=29	=29	=29	=29
0D	4A/]	2A/	2f/
.	4F/	.	.
.	2B-\	1d	1g
.	1A	.	.
.	.	4c\	2f#i/
.	.	4A/	.
=30	=30	=30	=30
0GGl	0Gl	0B-l	0gl
!!LO:LB:i:g=z
=31||	=31||	=31||	=31||
*>B	*>B	*>B	*>B
*clefF4	*clefGv2	*clefGv2	*clefG2
*k[b-]	*k[b-]	*k[b-]	*k[b-]
*M2/1	*M2/1	*M2/1	*M2/1
*met(C|)	*met(C|)	*met(C|)	*met(C|)
!!!OMD: Agnus Dei II
!!section: Agnus Dei II
0D	0r	0r	0r
=32	=32	=32	=32
1D	0r	0r	0r
[1D	.	.	.
=33	=33	=33	=33
2D\]	0A	0r	0r
4C/	.	.	.
4BB-/	.	.	.
2C/	.	.	.
[2D\	.	.	.
=34	=34	=34	=34
4D\]	1A	0r	0r
4E\	.	.	.
1F	.	.	.
.	[1A	.	.
4E\	.	.	.
4D\	.	.	.
=35	=35	=35	=35
2C/	2A/]	0r	0r
2D\	4G/	.	.
.	4F/	.	.
2E\	2G/	.	.
[2D\	2A/	.	.
=36	=36	=36	=36
2D\]	1.B-	0r	0r
2GG/	.	.	.
1GG	.	.	.
.	2G/	.	.
=37	=37	=37	=37
2r	1.A	0r	0r
2.D\	.	.	.
4E\	.	.	.
[2F\	2D/	.	.
=38	=38	=38	=38
2F\]	[0D	0r	0r
2BB-/	.	.	.
2BB-/	.	.	.
[2F\	.	.	.
=39	=39	=39	=39
2F\]	1D]	0r	0r
4E\	.	.	.
4D\	.	.	.
2C/	2r	.	.
2D\	[2A/	.	.
=40	=40	=40	=40
1E	2A/]	0r	0r
.	2G/	.	.
1D	2B-\	.	.
.	[2A/	.	.
=41	=41	=41	=41
2r	2A/]	0r	0r
1D	4G/	.	.
.	4F/	.	.
.	1E	.	.
2C/	.	.	.
=42	=42	=42	=42
2E\	2r	0r	0r
1D	2A/	.	.
.	2A/	.	.
4C/	2A/	.	.
4BB-/	.	.	.
=43	=43	=43	=43
1AA	2c\	0r	0r
.	4B-\	.	.
.	4A/	.	.
2r	2G/	.	.
2D\	2A/	.	.
=44	=44	=44	=44
2D\	1B-	0r	0r
2D\	.	.	.
2F\	2A/	.	.
4E\	[2c\	.	.
4D\	.	.	.
=45	=45	=45	=45
2C/	2c\]	0r	0r
2D\	4B-\	.	.
.	4A/	.	.
1E	2.G/	.	.
.	4A/	.	.
=46	=46	=46	=46
[0D	2.B-\	0r	0r
.	8A/L	.	.
.	8G/J	.	.
.	2A/	.	.
.	[2B-\	.	.
=47	=47	=47	=47
1D]	4B-\]	0r	0r
.	8A/L	.	.
.	8G/J	.	.
.	2A/	.	.
2r	1D	.	.
2D\	.	.	.
=48	=48	=48	=48
2D\	2r	0r	0r
2C/	2A/	.	.
2D\	2A/	.	.
2GG/	2G/	.	.
=49	=49	=49	=49
1D	2A/	0r	0r
.	2D/	.	.
2r	1A	.	.
2D\	.	.	.
=50	=50	=50	=50
2D\	2r	0r	0r
2C/	2A/	.	.
2D\	2A/	.	.
2GG/	2G/	.	.
=51	=51	=51	=51
[0Dl	2A/	0r	0r
.	2D/	.	.
.	2A/	.	.
.	[2B-\	.	.
=52	=52	=52	=52
0D_	2B-\]	0r	0r
.	4A/	.	.
.	4G/	.	.
.	2B-\	.	.
.	2A/	.	.
=53	=53	=53	=53
0D]	0Al	0r	0r
!!LO:LB:i:g=z
=54||	=54||	=54||	=54||
*>C	*>C	*>C	*>C
*clefF4	*clefGv2	*clefGv2	*clefG2
*k[b-]	*k[b-]	*k[b-]	*k[b-]
*M2/1	*M2/1	*M2/1	*M2/1
*met(C|)	*met(C|)	*met(C|)	*met(C|)
!!section: Agnus Dei III
!!!OMD: Agnus Dei III
0r	0r	0d	1r
.	.	.	[1a
=55	=55	=55	=55
0r	0r	1d	1a]
.	.	[1c	1a
=56	=56	=56	=56
0r	0r	2c\]	1.g
.	.	4B-\	.
.	.	4A/	.
.	.	2.G/	.
.	.	.	4f/
.	.	4A/	4e/
=57	=57	=57	=57
0r	0r	4B-\	2d/
.	.	4c\	.
.	.	1d	2f/
.	.	.	1e
.	.	2c#i\	.
=58	=58	=58	=58
0D	1r	1d	0d
.	[1A	1r	.
=59	=59	=59	=59
1D	1A]	0r	0r
2.C/	1A	.	.
4D\	.	.	.
=60	=60	=60	=60
4E\	2.G/	0r	0r
4F\	.	.	.
2.G\	.	.	.
.	4A/	.	.
.	4B-\	.	.
4F\	4c\	.	.
2D\	[2d\	.	.
=61	=61	=61	=61
1E	2d\]	0r	1g
.	2c#i\	.	.
1D	1d	.	2f/
.	.	.	[2b-\
=62	=62	=62	=62
1.G	2r	0B-	4b-\]
.	.	.	4a/
.	1d	.	4g/
.	.	.	4f/
.	.	.	1g
4F\	2G/	.	.
4E\	.	.	.
=63	=63	=63	=63
1D	2A/	1F	1f
.	2B-\	.	.
2C/	2c\	2G/	2r
[2G\	2B-\	[2G/	2b-\
=64	=64	=64	=64
2G\]	1G	4G/]	1b-
.	.	4A/	.
4F\	.	4B-\	.
4E\	.	4c\	.
1D	1A	1d	1f
=65	=65	=65	=65
2C/	2r	1e-i	2g/
1G	2B-\	.	2.g/
.	1B-	[1d	.
.	.	.	4a/
4F\	.	.	4b-\
4E\	.	.	4cc\
=66	=66	=66	=66
1D	1F	1d]	1dd
2C/	2G/	2r	2g/
[2G\	[2G/	2d\	[2b-\
=67	=67	=67	=67
2G\]	4G/]	1.d	2b-\]
.	4A/	.	.
4F\	4B-\	.	4a/
4E\	4c\	.	4g/
1D	1d	.	1f
.	.	2A/	.
=68	=68	=68	=68
2C/	1e-i	2c\	0g
1G	.	1B-	.
.	[1d	.	.
4F\	.	4A/	.
4E\	.	4G/	.
=69	=69	=69	=69
0D	0d]	1A	[0f
.	.	1B-	.
=70	=70	=70	=70
1r	1r	0A	0f]
1D	1A	.	.
=71	=71	=71	=71
2.E-i\	2.c\	0r	0r
4D\	4B-\	.	.
2C/	2A/	.	.
2BB-/	2G/	.	.
=72	=72	=72	=72
1AA	2G/	1r	1r
.	2F#i/	.	.
1GG	1G	2r	2r
.	.	2d\	2b-\
=73	=73	=73	=73
0r	0r	2.e-i\	2.cc\
.	.	4d\	4b-\
.	.	2c\	2a/
.	.	2B-\	[2g/
=74	=74	=74	=74
1D	2r	1A	2g/]
.	2d\	.	2f#i/
2.E-i\	2.c\	1G	1g
4D\	4B-\	.	.
=75	=75	=75	=75
2C/	2A/	1r	1r
2BB-/	2G/	.	.
1AA	2G/	1c	2r
.	2F#i/	.	2a/
=76	=76	=76	=76
2GG/	[0Gl	1B-	1.b-
1G	.	.	.
.	.	[1G	.
2F\	.	.	2a/
=77	=77	=77	=77
2E-i\	0G_	2G/]	2g/
2D\	.	4A/	2f/
.	.	4B-\	.
2.C/	.	1c	1e-i
4BB-/	.	.	.
=78	=78	=78	=78
0GGl	0G]	0B-l	0dl
==	==	==	==
*-	*-	*-	*-
!!!RDF**kern: l=long note in original notation
!!!RDF**kern: i=editorial accidental
!!!ENC:	Will Watson 07/08/2011
!!!END:	2011/07/08/
!!!EED:	Jesse Rodin
!!!EEV:	2013/10/25/
!!attribution-level@Jos: 4 (questionable)
!!!ONB:	Translated from MusicXML and edited on 2011/12/26/ by Craig Sapp
!!muse2ps: T^@{OPR}^u^@{ONM}{. }@{OTL}^C^@{COM}{/}@{COA}?\n@{SCT}^i2I100v85,85,85,150c95Q16
